X: 201280
T: Thade Janey Buckley's
S: "Johnny O'Leary of Sliabh Luachra" (#255)
Z: B.Black
L: 1/8
M: 6/8
R: jig
K: A
B|cBA F/G/AE|FAE FAB|cBA FAE|FBA BAB|
cBA F/A/FE|FAE FAc|cBA F/G/AE|1 FAG A2 :|2\
FAG A3 ||
Ace f2e|fae c/d/cB|Ace f2e|f2b bab|
c'ba bag|agf ecB|cBA F/G/AE|FAG A2B :|
